X:176
T:Edinborough Town. JGi.176
M:C
L:1/8
Q:1/4=130
S:Joshua Gibbons MS,1823,Tealby,Lincs.
R:Air
C:’Primo’
O:Tealby,Lincolnshire
Z:VMP/R.Greig, 2009
K:C
e>f|g<e d>ec2e<c|A<c G>EG2c>d|(e<g)a<c’ g<e cd/e/|({e}d4)z2e>f|
(g<e)(d<e)c2e<c|A<c G>EG2c>d|e<g a<c’ g<e d>e|{e}c4z4|
c>def (g<e)c’2|c>de>f (g<e)Hc’2|c>dcB GEGc|
eceg a>bc’2b/a/|(g<e) (e<c) (A<c) (G<c)|(e<g) d<e c2|]

